assets/icons/sum.svg

<svg width="25" height="25" viewBox="0 0 25 25" fill="none" xmlns="http://www.w3.org/2000/svg">
<g id="sum">
<path id="iconDefault" fill-rule="evenodd" clip-rule="evenodd" d="M4.43521 3.06573C4.53863 2.8475 4.75851 2.70837 5.00001 2.70837H18.3333C18.6785 2.70837 18.9583 2.9882 18.9583 3.33337V5.00004C18.9583 5.34522 18.6785 5.62504 18.3333 5.62504C17.9882 5.62504 17.7083 5.34522 17.7083 5.00004V3.95837H6.31891L12.9837 12.1043C13.1721 12.3345 13.1721 12.6656 12.9837 12.8958L6.31891 21.0417H17.7083V20C17.7083 19.6549 17.9882 19.375 18.3333 19.375C18.6785 19.375 18.9583 19.6549 18.9583 20V21.6667C18.9583 22.0119 18.6785 22.2917 18.3333 22.2917H5.00001C4.75851 22.2917 4.53863 22.1526 4.43521 21.9344C4.3318 21.7161 4.36336 21.4578 4.51628 21.2709L11.6925 12.5L4.51628 3.72915C4.36336 3.54224 4.3318 3.28396 4.43521 3.06573Z" fill="#18303F"/>
</g>
</svg>

<svg width="25" height="25" viewBox="0 0 25 25" fill="none"><g id="sum"><path id="iconDefault" fill-rule="evenodd" clip-rule="evenodd" d="M4.435 3.066A.625.625 0 0 1 5 2.708h13.333c.346 0 .625.28.625.625V5a.625.625 0 1 1-1.25 0V3.958H6.318l6.666 8.146a.625.625 0 0 1 0 .792l-6.665 8.146h11.39V20a.625.625 0 0 1 1.25 0v1.667c0 .345-.28.625-.626.625H5a.625.625 0 0 1-.484-1.021l7.177-8.771-7.177-8.77a.625.625 0 0 1-.08-.664Z" fill="#18303F"/></g></svg>
